X: 20432
T: John Howat's
R: reel
M: 4/4
K: Dmajor
fg|"D"a2fd "A7"g2ec|"D"d2AG "D7"FDFA|"G"E2FG ABcd|"Em"eAfA "A7"g2 fg|
"D"a2fd "A7"g2ec|"D"d2AG FDFA|"Em"E2FG ABcd|"A7"eABc "D"d2:|
|:A2|"D"defg "D7"aAfA|"G"gfed "A7"ceAe|"D"defg aAfA|"E7"gba^g "A7"a3 =g|
"D"abaf "Em"gfed|"A7"eAfA GFEG|"D"F2AF "G"G2BG|"A7"Adce "D"d2:|

